source/img/icon-layers.svg

<svg fill="none" height="24" viewBox="0 0 24 24" width="24" xmlns="http://www.w3.org/2000/svg" xmlns:xlink="http://www.w3.org/1999/xlink"><clipPath id="a"><path d="m0 0h24v24h-24z"/></clipPath><g clip-path="url(#a)"><path d="m24 12.0001c0-.5706-.3026-1.0905-.8107-1.392l-1.3364-.7862c.5148-.30569.9736-.57835 1.3375-.79486.5071-.30257.8096-.82248.8096-1.39086s-.3026-1.08828-.8096-1.39142c-1.6705-.99348-7.3349-4.35963-10.1272-5.960357-.6467-.3713016-1.4329-.386182-2.1318.003221 0 0-7.59373 4.460326-10.120735 5.956676-.508091.30145-.810665.82135-.810665 1.39188 0 .56838.302574 1.08829.809643 1.39142.363837.21636.822527.48897 1.337217.79451l-1.336143.78599c-.508143.3015-.810717.8214-.810717 1.392 0 .5683.302574 1.0882.809643 1.3914.363837.2163.822527.4889 1.337217.7945l-1.336143.786c-.508143.3015-.810717.8214-.810717 1.3919 0 .5684.302574 1.0883.809643 1.3915 2.161587 1.2853 7.474457 4.4395 10.127157 5.9603.3249.1865.6936.285 1.0632.285.3697 0 .7383-.0985 1.0643-.2855 2.6517-1.5204 7.9645-4.6745 10.1261-5.9604.5071-.3026.8097-.8225.8097-1.3909 0-.5705-.3026-1.0904-.8108-1.3919l-1.3364-.7862c.5149-.3057.9736-.5784 1.3375-.7949.5071-.3026.8096-.8225.8096-1.3908zm-22.6321-3.90865c-.0831-.05006-.27701-.19391-.27701-.45435 0-.26156.19284-.40428.27593-.45332 2.52379-1.49467 10.10688-5.94834 10.10588-5.94783.3473-.1955.7265-.18803 1.0483-.00373 2.7847 1.59642 8.4439 4.95864 10.1111 5.95048.0831.05007.277.19391.277.45435s-.1939.40428-.277.45384c-2.1584 1.28372-7.4648 4.43451-10.1101 5.95051-.3281.1875-.717.1869-1.043.0005-2.64626-1.5165-7.95274-4.66724-10.1111-5.95045zm21.2653 7.81955c.0831.049.2759.1918.2759.4533 0 .2605-.1939.4043-.277.4539-2.1584 1.2837-7.4648 4.4345-10.1101 5.9505-.3281.1875-.717.1869-1.043.0005-2.64626-1.5165-7.95274-4.6673-10.1111-5.9505-.0831-.0501-.27701-.1939-.27701-.4544 0-.2615.19284-.4042.27593-.4533l1.85109-1.0892c2.502 1.483 5.80245 3.4316 7.71889 4.5302.3249.1865.6936.285 1.0632.285.3697 0 .7383-.0985 1.0643-.2855 1.9156-1.0983 5.2158-3.0466 7.7177-4.5298zm-.0011-3.4564c-2.1584 1.2837-7.4648 4.4345-10.1101 5.9504-.3281.1876-.717.187-1.043.0006-2.64626-1.5166-7.95274-4.6673-10.1111-5.9505-.0831-.0501-.27701-.1939-.27701-.4544 0-.2615.19284-.4043.27593-.4533l1.85109-1.0893c2.502 1.4831 5.80245 3.4317 7.71889 4.5303.3249.1865.6936.285 1.0632.285.3697 0 .7383-.0985 1.0643-.2855 1.9156-1.0983 5.2158-3.0466 7.7177-4.5298l1.8512 1.0893c.0831.049.276.1918.276.4533-.0001.2605-.194.4043-.2771.4539z" fill="#2b2d3a"/></g></svg>

<svg width="24" height="24" viewBox="0 0 24 24" fill="none" xmlns="http://www.w3.org/2000/svg">
<g clip-path="url(#clip0)">
<path d="M24 12.0001C24 11.4295 23.6974 10.9096 23.1893 10.6081L21.8529 9.8219C22.3677 9.51621 22.8265 9.24355 23.1904 9.02704C23.6975 8.72447 24 8.20456 24 7.63618C24 7.0678 23.6974 6.5479 23.1904 6.24476C21.5199 5.25128 15.8555 1.88513 13.0632 0.284403C12.4165 -0.0868986 11.6303 -0.101779 10.9314 0.287624C10.9314 0.287624 3.33767 4.74795 0.810665 6.2443C0.302574 6.54575 0 7.06565 0 7.63618C0 8.20456 0.302574 8.72447 0.809643 9.0276C1.17348 9.24396 1.63217 9.51657 2.14686 9.82211L0.810717 10.6081C0.302574 10.9096 0 11.4295 0 12.0001C0 12.5684 0.302574 13.0883 0.809643 13.3915C1.17348 13.6078 1.63217 13.8804 2.14686 14.186L0.810717 14.972C0.302574 15.2735 0 15.7934 0 16.3639C0 16.9323 0.302574 17.4522 0.809643 17.7554C2.97123 19.0407 8.2841 22.1949 10.9368 23.7157C11.2617 23.9022 11.6304 24.0007 12 24.0007C12.3697 24.0007 12.7383 23.9022 13.0643 23.7152C15.716 22.1948 21.0288 19.0407 23.1904 17.7548C23.6975 17.4522 24.0001 16.9323 24.0001 16.3639C24.0001 15.7934 23.6975 15.2735 23.1893 14.972L21.8529 14.1858C22.3678 13.8801 22.8265 13.6074 23.1904 13.3909C23.6975 13.0883 24 12.5684 24 12.0001ZM1.3679 8.09145C1.2848 8.04139 1.09089 7.89754 1.09089 7.6371C1.09089 7.37554 1.28373 7.23282 1.36682 7.18378C3.89061 5.68911 11.4737 1.23544 11.4727 1.23595C11.82 1.04045 12.1992 1.04792 12.521 1.23222C15.3057 2.82864 20.9649 6.19086 22.6321 7.1827C22.7152 7.23277 22.9091 7.37661 22.9091 7.63705C22.9091 7.89749 22.7152 8.04133 22.6321 8.09089C20.4737 9.37461 15.1673 12.5254 12.522 14.0414C12.1939 14.2289 11.805 14.2283 11.479 14.0419C8.83274 12.5254 3.52626 9.37466 1.3679 8.09145ZM22.6332 15.911C22.7163 15.96 22.9091 16.1028 22.9091 16.3643C22.9091 16.6248 22.7152 16.7686 22.6321 16.8182C20.4737 18.1019 15.1673 21.2527 12.522 22.7687C12.1939 22.9562 11.805 22.9556 11.479 22.7692C8.83274 21.2527 3.52626 18.1019 1.3679 16.8187C1.2848 16.7686 1.09089 16.6248 1.09089 16.3643C1.09089 16.1028 1.28373 15.9601 1.36682 15.911L3.21791 14.8218C5.71991 16.3048 9.02036 18.2534 10.9368 19.352C11.2617 19.5385 11.6304 19.637 12 19.637C12.3697 19.637 12.7383 19.5385 13.0643 19.3515C14.9799 18.2532 18.2801 16.3049 20.782 14.8217L22.6332 15.911ZM22.6321 12.4546C20.4737 13.7383 15.1673 16.8891 12.522 18.405C12.1939 18.5926 11.805 18.592 11.479 18.4056C8.83274 16.889 3.52626 13.7383 1.3679 12.4551C1.2848 12.405 1.09089 12.2612 1.09089 12.0007C1.09089 11.7392 1.28373 11.5964 1.36682 11.5474L3.21791 10.4581C5.71991 11.9412 9.02036 13.8898 10.9368 14.9884C11.2617 15.1749 11.6304 15.2734 12 15.2734C12.3697 15.2734 12.7383 15.1749 13.0643 14.9879C14.9799 13.8896 18.2801 11.9413 20.782 10.4581L22.6332 11.5474C22.7163 11.5964 22.9092 11.7392 22.9092 12.0007C22.9091 12.2612 22.7152 12.405 22.6321 12.4546Z" fill="#2B2D3A"/>
</g>
<defs>
<clipPath id="clip0">
<rect width="24" height="24" fill="white"/>
</clipPath>
</defs>
</svg>
